X:1
T:The Whitby Runaround
M:6/8
L:1/8
Q:80
C:Michael Grey
S:Jig
K:HP
|: a | \
{fg}f2afe{A}e | \
{g}Bd{c}d{g}G3 | \
{g}A{d}A{e}A{g}ABc |
{g}fa{g}a{ef}e3 | \
{fg}f2afe{A}e | \
{g}Bd{c}d{g}G3 |
{g}A{d}c{e}c{g}ce{A}e | \
{g}dfe{Gdc}d3 :: \
{g}fa{g}a{g}aAf |
{g}GaG{g}GaB | \
{g}A{d}c{e}c{g}ce{A}e | \
{g}fd{e}d{g}fed|1
{g}fa{g}a{g}aAf | \
{g}GaG{g}GaB | \
{g}A{d}c{e}c{g}ce{A}e |
{g}dfe{Gdc}d3 :: \
{g}fAd{g}Af{e}f | \
{g}GdG{g}Bcd |
{g}Aec{g}Ae{A}e | \
{g}df{e}f{g}fed | \
{g}fAd{g}Af{e}f |
{g}GdG{g}Bcd | \
{g}Aec{g}Ae{A}e | \
{g}dfe{Gdc}d3 ::
{g}da{g}a{g}afa | \
Ga{g}aBa{g}a | \
Aa{g}a{g}aca |
da{g}afa{g}a | \
{g}da{g}a{g}afa | \
Ga{g}aBa{g}a |
Aa{g}a{g}aca | \
dfe{Gdc}d3{g}d{ag}a2fa2 | \
G{ag}a2Ba2 |
Aa{g}aca{g}a | \
da{g}afa{g}a | \
dafa{g}a{g}a |
GaB{g}d{e}d{c}d | \
{g}Aac{g}e{A}e{A}e | \
{g}dfe{Gdc}d3 :|
